X: 2541
T: Ballygow, The
R: polka
M: 2/4
K: Dmajor
DF/A/ df|ed Bd|AB/A/ FA|BA FA|
DF/A/ df|ed Bd|AF EF|1 D2 DA,:|2 D2 D g||
|:fA df|e/f/e/d/ Bd|fA df|e2 e g|
fA df|e/f/e/d/ Bd|AF EF|1 D2 D g:|2 D2 DA,||

